X:1
T:I Am a Wee Laddy
M:3/4
L:1/4
K:G
d/2-B/2| A E F|A/2-B/2 d A| B E E| E2(2B3.99999962500005/11.9999985000002B3.99999962500005/11.9999985000002c3.99999962500005/11.9999985000002 d3.99999962500005/11.9999985000002|\
 e f e| d2 e/2d/2| B G A| B2(3B3.99999962500005/11.9999985000002B3.99999962500005/11.9999985000002c3.99999962500005/11.9999985000002B3.99999962500005/11.9999985000002c3.99999962500005/11.9999985000002d3.99999962500005/11.9999985000002|\
 e f e| d2 e/2d/2| B G A| B2d/2-c/2| B EF/2-G/2|A/2-B/2 d B| G E E|\
 E2||

